wp-content/themes/blackfoot/assets/img/icon-featured-peach.svg

<?xml version="1.0" encoding="UTF-8" standalone="no"?>
<svg width="25px" height="25px" viewBox="0 0 25 25" version="1.1" xmlns="http://www.w3.org/2000/svg" xmlns:xlink="http://www.w3.org/1999/xlink" xmlns:sketch="http://www.bohemiancoding.com/sketch/ns">
    <!-- Generator: Sketch 3.4 (15575) - http://www.bohemiancoding.com/sketch -->
    <title>TAG ICON</title>
    <desc>Created with Sketch.</desc>
    <defs></defs>
    <g id="Shop" stroke="none" stroke-width="1" fill="none" fill-rule="evenodd" sketch:type="MSPage">
        <g sketch:type="MSArtboardGroup" transform="translate(-746.000000, -225.000000)" id="DOD" fill="#F7915E">
            <g sketch:type="MSLayerGroup" transform="translate(722.000000, 205.000000)">
                <g id="TAG-ICON" transform="translate(24.000000, 20.000000)" sketch:type="MSShapeGroup">
                    <path d="M23.776,15.409 L15.6706667,23.5143333 L4.60933333,12.453 L4.36466667,13.6066667 L15.6706667,24.9126667 L24.4753333,16.108 L23.776,15.409 Z" id="Fill-1"></path>
                    <path d="M13.1926667,2.00266667 L8.55066667,2.991 C7.92066667,1.94 6.94133333,0.937333333 5.41666667,0.34 C3.879,-0.265666667 2.36066667,-0.0546666667 1.254,0.915333333 C0.244666667,1.80066667 -0.188666667,3.134 0.125,4.39466667 C0.346333333,5.284 1.138,6.875 3.96866667,7.547 L4.198,6.58466667 C2.47933333,6.17566667 1.37366667,5.31366667 1.086,4.15633333 C0.862,3.25666667 1.177,2.29933333 1.90766667,1.659 C2.72666667,0.94 3.875,0.795666667 5.05733333,1.259 C8.68733333,2.685 8.703,6.884 8.70166667,7.06266667 C8.70166667,7.336 8.92333333,7.647 9.19666667,7.647 C9.46733333,7.647 9.68633333,7.5 9.69133333,7.25 L9.75,7.25 L9.75,7.06366667 L9.75,7.06266667 L9.75,7.06133333 C9.75,6.965 9.715,6.375 9.55466667,5.57033333 C9.79933333,5.61966667 10.0196667,5.73566667 10.2096667,5.927 C10.7293333,6.44666667 10.7213333,7.289 10.2016667,7.80866667 C9.68233333,8.328 8.836,8.328 8.31633333,7.80866667 C7.90366667,7.396 7.82166667,6.78 8.06633333,6.28266667 C7.90366667,5.44533333 7.543,4.33466667 6.76833333,3.371 L5.935,3.54833333 L4.38933333,10.8073333 L15.6953333,22.1146667 L24.5,13.31 L13.1926667,2.00266667 Z" id="Fill-2"></path>
                </g>
            </g>
        </g>
    </g>
</svg>

<svg xmlns="http://www.w3.org/2000/svg" width="25" height="25"><title>TAG ICON</title><desc>Created with Sketch.</desc><g fill="none"><g fill="#F7915E"><g><path d="M23.78 15.4l-8.1 8.1L4.6 12.46l-.24 1.16 11.3 11.3 8.82-8.8-.7-.7z"/><path d="M13.2 2L8.54 3C7.92 1.93 6.95.93 5.42.33c-1.54-.6-3.06-.4-4.17.58C.25 1.8-.2 3.12.12 4.4c.23.88 1.02 2.47 3.85 3.15l.23-.97c-1.72-.4-2.83-1.27-3.1-2.42-.24-.9.08-1.86.8-2.5.83-.72 1.98-.86 3.16-.4C8.7 2.7 8.7 6.88 8.7 7.06c0 .28.22.6.5.6.27 0 .5-.16.5-.4h.05v-.2c0-.1-.04-.68-.2-1.5.25.06.47.18.66.37.53.52.52 1.36 0 1.88-.52.53-1.36.53-1.88 0-.42-.4-.5-1.02-.25-1.52-.17-.83-.53-1.95-1.3-2.9l-.83.17-1.55 7.26 11.3 11.3 8.8-8.8L13.2 2z"/></g></g></g></svg>
